Obsidian-SemiLight/actions/22s/view-group.svg

<svg viewBox="0 0 22 22" xmlns="http://www.w3.org/2000/svg"><path d="m3 3v16h16v-16zm1 4h14v11h-14zm2 1v4h4v-4zm6 0v4h4v-4zm-5 1h2v2h-2zm6 0h2v2h-2zm-7 4v4h4v-4zm6 0v4h4v-4zm-5 1h2v2h-2zm6 0h2v2h-2z" fill="#4d4d4d"/></svg>

<svg xmlns="http://www.w3.org/2000/svg" viewBox="0 0 22 22">
  <defs id="defs3051">
    <style type="text/css" id="current-color-scheme">
      .ColorScheme-Text {
        color:#4d4d4d;
      }
      </style>
  </defs>
 <path 
    style="fill:currentColor;fill-opacity:1;stroke:none" 
    d="M 3 3 L 3 19 L 19 19 L 19 3 L 3 3 z M 4 7 L 18 7 L 18 18 L 4 18 L 4 7 z M 6 8 L 6 12 L 10 12 L 10 8 L 6 8 z M 12 8 L 12 12 L 16 12 L 16 8 L 12 8 z M 7 9 L 9 9 L 9 11 L 7 11 L 7 9 z M 13 9 L 15 9 L 15 11 L 13 11 L 13 9 z M 6 13 L 6 17 L 10 17 L 10 13 L 6 13 z M 12 13 L 12 17 L 16 17 L 16 13 L 12 13 z M 7 14 L 9 14 L 9 16 L 7 16 L 7 14 z M 13 14 L 15 14 L 15 16 L 13 16 L 13 14 z "
	class="ColorScheme-Text"
    />  
</svg>
